assets/svg/play.svg

<svg fill="none" height="12" viewBox="0 0 14 12" width="14" xmlns="http://www.w3.org/2000/svg"><path clip-rule="evenodd" d="m0 6c0-3.31371 2.91796-6 6.51733-6s6.51737 2.68629 6.51737 6-2.918 6-6.51737 6-6.51733-2.68629-6.51733-6zm5.51122 2.19305 3.25867-1.875c.11904-.06865.19144-.18879.19144-.31805s-.0724-.24937-.19144-.31805l-3.25867-1.875c-.12559-.07232-.28391-.07636-.41339-.00989-.12948.0661-.20983.19153-.20983.32794v3.75c0 .13641.08035.26184.20983.32794.06156.0315.12958.04706.1975.04706.07498 0 .14995-.01905.21589-.05695z" fill="#145fd8" fill-rule="evenodd"/></svg>

<svg width="14" height="12" viewBox="0 0 14 12" fill="none" xmlns="http://www.w3.org/2000/svg">
<path fill-rule="evenodd" clip-rule="evenodd" d="M0 6C0 2.68629 2.91796 0 6.51733 0C10.1167 0 13.0347 2.68629 13.0347 6C13.0347 9.31371 10.1167 12 6.51733 12C2.91796 12 0 9.31371 0 6ZM5.51122 8.19305L8.76989 6.31805C8.88893 6.2494 8.96133 6.12926 8.96133 6C8.96133 5.87074 8.88893 5.75063 8.76989 5.68195L5.51122 3.80695C5.38563 3.73463 5.22731 3.73059 5.09783 3.79706C4.96835 3.86316 4.888 3.98859 4.888 4.125V7.875C4.888 8.01141 4.96835 8.13684 5.09783 8.20294C5.15939 8.23444 5.22741 8.25 5.29533 8.25C5.37031 8.25 5.44528 8.23095 5.51122 8.19305Z" fill="#145FD8"/>
</svg>
